Newaita-dark/apps/16/mintbackup.svg

<svg height="16pt" viewBox="0 0 16 16" width="16pt" xmlns="http://www.w3.org/2000/svg" xmlns:xlink="http://www.w3.org/1999/xlink"><linearGradient id="a"><stop offset="0" stop-opacity=".313725"/><stop offset=".222222" stop-opacity=".27451"/><stop offset="1" stop-opacity="0"/></linearGradient><radialGradient id="b" cx="450.90894" cy="189.57936" gradientTransform="matrix(.00000009 -.0390662 -.0703192 -.00000005 22.261576 31.797666)" gradientUnits="userSpaceOnUse" r="21.166656" xlink:href="#a"/><radialGradient id="c" cx="450.90894" cy="189.57936" gradientTransform="matrix(-.00000009 .0390662 .0703192 .00000005 -6.38506 -3.763741)" gradientUnits="userSpaceOnUse" r="21.166656" xlink:href="#a"/><radialGradient id="d" cx="450.90894" cy="189.57936" gradientTransform="matrix(-.00000009 -.0390662 .0703192 -.00000005 -6.38506 31.797666)" gradientUnits="userSpaceOnUse" r="21.166656" xlink:href="#a"/><radialGradient id="e" cx="450.90894" cy="189.57936" gradientTransform="matrix(.00000009 .0390662 -.0703192 .00000005 22.261575 -3.763741)" gradientUnits="userSpaceOnUse" r="21.166656" xlink:href="#a"/><linearGradient id="f" gradientTransform="matrix(.00668003 0 0 .031253 6.232693 6.719392)" gradientUnits="userSpaceOnUse" x1="255.32306" x2="255.32304" y1="233.5" y2="254.66666"><stop offset="0" stop-opacity=".27451"/><stop offset="1" stop-opacity="0"/></linearGradient><linearGradient id="g" gradientUnits="userSpaceOnUse" x1="254" x2="254" y1="-168.66667" y2="233.5"><stop offset="0" stop-color="#aed581"/><stop offset="1" stop-color="#9ccc65"/></linearGradient><linearGradient id="h" gradientUnits="userSpaceOnUse" x1="7.9382592" x2="7.9382592" y1="14.01696629816" y2="1.44805523664"><stop offset="0" stop-color="#424242"/><stop offset="1" stop-color="#616161"/></linearGradient><path d="m9.097656 14.015625h1.320313v-.660156h-1.320313zm0 0" fill="url(#b)"/><path d="m6.78125 14.015625h-1.324219v.664063h1.324219zm0 0" fill="url(#c)"/><path d="m6.78125 14.015625h-1.324219v-.660156h1.324219zm0 0" fill="url(#d)"/><path d="m9.097656 14.015625h1.320313v.664063h-1.320313zm0 0" fill="url(#e)"/><path d="m6.78125 13.851562h2.316406v.828126h-2.316406zm0 0" fill="url(#f)"/><path d="m253.975747-168.629428c111.114389 0 201.105795 89.991406 201.105795 201.105795 0 110.989401-89.991406 200.980807-201.105795 200.980807-110.989402 0-201.105796-89.991406-201.105796-200.980807 0-111.114389 90.116394-201.105795 201.105796-201.105795zm0 0" fill="url(#g)" stroke="#333" stroke-linecap="round" stroke-width="3" transform="matrix(.031253 0 0 .031253 0 6.719392)"/><path d="m7.9375 14.015625c-3.480469 0-6.285156-2.800781-6.285156-6.28125 0-.023437 0-.042969 0-.0625.035156 3.453125 2.824218 6.222656 6.285156 6.222656s6.253906-2.769531 6.285156-6.222656v.0625c0 3.480469-2.804687 6.28125-6.285156 6.28125zm0 0" fill-opacity=".196078"/><path d="m7.9375 1.449219c-3.480469 0-6.285156 2.800781-6.285156 6.285156v.058594c.035156-3.453125 2.824218-6.222657 6.285156-6.222657s6.253906 2.769532 6.285156 6.222657c0-.019531 0-.039063 0-.058594 0-3.484375-2.804687-6.285156-6.285156-6.285156zm0 0" fill="#fff" fill-opacity=".392157"/><path d="m7.9375 1.402344c-3.507812 0-6.332031 2.824218-6.332031 6.332031 0 3.503906 2.824219 6.328125 6.332031 6.328125s6.332031-2.824219 6.332031-6.328125c0-3.507813-2.824219-6.332031-6.332031-6.332031zm0 .09375c3.457031 0 6.238281 2.78125 6.238281 6.238281 0 3.453125-2.78125 6.234375-6.238281 6.234375s-6.238281-2.78125-6.238281-6.234375c0-3.457031 2.78125-6.238281 6.238281-6.238281zm0 0" fill="#212121"/><path d="m8.097656 2.441406c-.0625 0-.125.019532-.183594.058594l-1.652343 1.15625c-.1875.132812-.1875.410156 0 .542969l1.652343 1.15625c.054688.039062.121094.0625.1875.0625.183594 0 .332032-.148438.332032-.332031v-.644532c1.675781.164063 2.976562 1.570313 2.976562 3.292969 0 1.214844-.648437 2.273437-1.621094 2.847656l.203126.144531c.226562.15625.359374.398438.398437.652344 1.210937-.761718 2.011719-2.105468 2.011719-3.644531 0-2.273437-1.742188-4.121094-3.96875-4.289063v-.675781c0-.191406-.15625-.324219-.324219-.328125-.003906 0-.007813 0-.011719 0zm-2.613281 1.644532c-1.210937.761718-2.011719 2.105468-2.011719 3.648437 0 2.269531 1.742188 4.117187 3.96875 4.285156v.675781c0 .265626.300782.421876.519532.269532l1.65625-1.15625c.1875-.132813.1875-.410156 0-.542969l-1.65625-1.15625c-.054688-.039063-.117188-.0625-.183594-.0625-.183594 0-.335938.148437-.335938.332031v.644532c-1.675781-.164063-2.976562-1.570313-2.976562-3.289063 0-1.21875.652344-2.277344 1.625-2.851563l-.207032-.144531c-.226562-.15625-.359374-.398437-.398437-.652343zm0 0" fill="url(#h)"/><path d="m8.097656 2.441406c-.0625 0-.125.019532-.183594.058594l-1.652343 1.15625c-.121094.085938-.164063.226562-.132813.355469.019532-.074219.0625-.140625.132813-.1875l1.652343-1.160157c.058594-.039062.121094-.058593.183594-.058593h.011719c.167969.003906.324219.140625.324219.332031v-.167969c0-.191406-.15625-.324219-.324219-.328125-.003906 0-.007813 0-.011719 0zm.335938 1.003906v.164063c2.199218.167969 3.925781 1.972656 3.96875 4.203125 0-.027344 0-.054688 0-.078125 0-2.273437-1.742188-4.121094-3.96875-4.289063zm-2.949219.640626c-1.210937.761718-2.011719 2.105468-2.011719 3.648437v.078125c.03125-1.503906.824219-2.816406 2.011719-3.558594.039063.253906.171875.492188.398437.652344l.078126.054688c.042968-.027344.085937-.054688.128906-.078126l-.207032-.144531c-.226562-.15625-.359374-.398437-.398437-.652343zm5.925781 3.765624c-.042968 1.164063-.679687 2.175782-1.621094 2.730469l.125.089844c.871094-.570313 1.457032-1.542969 1.496094-2.65625v.035156c0-.027343 0-.054687 0-.082031 0-.039062 0-.078125 0-.117188zm-6.941406 0c-.003906.039063-.003906.078126-.003906.117188v.085938c.003906-.011719.003906-.027344.003906-.039063.058594 1.667969 1.335938 3.011719 2.972656 3.175781v-.167968c-1.636718-.160157-2.914062-1.507813-2.972656-3.171876zm3.308594 2.195313c-.183594 0-.335938.148437-.335938.332031v.164063c0-.183594.152344-.332031.335938-.328125.066406 0 .128906.019531.183594.058594l1.65625 1.15625c.066406.050781.109374.117187.128906.1875.035156-.125-.011719-.269532-.128906-.351563l-1.65625-1.15625c-.054688-.039063-.117188-.0625-.183594-.0625zm0 0" fill="#fff" fill-opacity=".392157"/><path d="m6.164062 4.078125c-.082031.140625-.050781.332031.097657.4375l1.652343 1.15625c.054688.039063.121094.058594.1875.058594.183594.003906.332032-.144531.332032-.328125v-.332032c0 .183594-.148438.332032-.332032.332032-.066406-.003906-.132812-.023438-.1875-.0625l-1.652343-1.15625c-.042969-.027344-.074219-.066406-.097657-.105469zm2.269532.347656v.328125c1.621094.160156 2.894531 1.484375 2.972656 3.128906.003906-.054687.003906-.109374.003906-.167968 0-1.71875-1.300781-3.125-2.976562-3.289063zm-2.589844.597657c-.835938.601562-1.378906 1.582031-1.378906 2.691406 0 .058594.003906.113281.003906.167968.054688-1.148437.691406-2.136718 1.621094-2.683593l-.207032-.144531c-.011718-.011719-.027343-.019532-.039062-.03125zm6.558594 2.855468c-.054688 1.472656-.84375 2.75-2.011719 3.484375-.035156-.242187-.15625-.46875-.359375-.625-.078125.054688-.160156.109375-.242188.160157l.203126.140624c.226562.160157.359374.398438.398437.652344 1.210937-.757812 2.011719-2.105468 2.011719-3.644531 0-.054687 0-.109375 0-.167969zm-8.925782.003906c-.003906.054688-.003906.109376-.003906.164063 0 2.269531 1.742188 4.121094 3.96875 4.289063v-.332032c-2.171875-.164062-3.882812-1.925781-3.964844-4.121094zm6.238282 3.800782c-.023438.042968-.058594.078125-.097656.105468l-1.65625 1.160157c-.21875.152343-.519532-.003907-.519532-.273438v.332031c0 .269532.300782.425782.519532.269532l1.65625-1.15625c.144531-.101563.179687-.292969.097656-.4375zm0 0" fill-opacity=".235294"/><path d="m979.276575 295.2474c-7.558334 0-15.116667 2.361979-22.202605 7.085937l-199.82344 139.829169c-22.675 16.061458-22.675 49.601563 0 65.663021l199.82344 139.829169c6.613542 4.723958 14.644271 7.558333 22.675001 7.558333 22.202604 0 40.153646-17.951042 40.153646-40.153646v-77.945314c202.657815 19.840626 359.96563 189.903128 359.96563 398.229693 0 146.915106-78.41771 274.934378-196.044274 344.376567l24.564584 17.478646c27.398959 18.895833 43.460417 48.184375 48.184375 78.890105 146.442711-92.117189 243.283858-254.621358 243.283858-440.745318 0-274.934379-210.688545-498.377611-479.954173-518.690632v-81.72448c0-23.147396-18.895834-39.208855-39.208855-39.68125-.472395 0-.944791 0-1.417187 0zm-316.032817 198.878648c-146.44271 92.117189-243.283857 254.621357-243.283857 441.217714 0 274.461982 210.688544 497.905214 479.954173 518.218235v81.724481c0 32.122917 36.374479 51.01875 62.828646 32.595313l200.295836-139.829169c22.675001-16.061458 22.675001-49.601563 0-65.663022l-200.295836-139.829168c-6.613541-4.723958-14.171875-7.558333-22.202604-7.558333-22.202604 0-40.626042 17.951042-40.626042 40.153646v77.945313c-202.657815-19.840625-359.96563-189.903127-359.96563-397.757296 0-147.387502 78.890105-275.406775 196.516669-344.848963l-25.036979-17.478646c-27.398959-18.895834-43.460417-48.184376-48.184376-78.890105zm0 0" fill="none" stroke="#212121" stroke-linecap="round" stroke-width="11.338583" transform="scale(.00826902)"/></svg>

<?xml version="1.0" encoding="UTF-8"?>
<svg xmlns="http://www.w3.org/2000/svg" xmlns:xlink="http://www.w3.org/1999/xlink" width="16pt" height="16pt" viewBox="0 0 16 16" version="1.1">
<defs>
<radialGradient id="radial0" gradientUnits="userSpaceOnUse" cx="450.90894" cy="189.57936" fx="450.90894" fy="189.57936" r="21.166656" gradientTransform="matrix(0.0000000870852,-0.0390662,-0.0703192,-0.0000000507693,22.261576,31.797666)">
<stop offset="0" style="stop-color:rgb(0%,0%,0%);stop-opacity:0.313725;"/>
<stop offset="0.222222" style="stop-color:rgb(0%,0%,0%);stop-opacity:0.27451;"/>
<stop offset="1" style="stop-color:rgb(0%,0%,0%);stop-opacity:0;"/>
</radialGradient>
<radialGradient id="radial1" gradientUnits="userSpaceOnUse" cx="450.90894" cy="189.57936" fx="450.90894" fy="189.57936" r="21.166656" gradientTransform="matrix(-0.0000000870852,0.0390662,0.0703192,0.0000000507693,-6.38506,-3.763741)">
<stop offset="0" style="stop-color:rgb(0%,0%,0%);stop-opacity:0.313725;"/>
<stop offset="0.222222" style="stop-color:rgb(0%,0%,0%);stop-opacity:0.27451;"/>
<stop offset="1" style="stop-color:rgb(0%,0%,0%);stop-opacity:0;"/>
</radialGradient>
<radialGradient id="radial2" gradientUnits="userSpaceOnUse" cx="450.90894" cy="189.57936" fx="450.90894" fy="189.57936" r="21.166656" gradientTransform="matrix(-0.0000000870852,-0.0390662,0.0703192,-0.0000000507693,-6.38506,31.797666)">
<stop offset="0" style="stop-color:rgb(0%,0%,0%);stop-opacity:0.313725;"/>
<stop offset="0.222222" style="stop-color:rgb(0%,0%,0%);stop-opacity:0.27451;"/>
<stop offset="1" style="stop-color:rgb(0%,0%,0%);stop-opacity:0;"/>
</radialGradient>
<radialGradient id="radial3" gradientUnits="userSpaceOnUse" cx="450.90894" cy="189.57936" fx="450.90894" fy="189.57936" r="21.166656" gradientTransform="matrix(0.0000000870852,0.0390662,-0.0703192,0.0000000507693,22.261575,-3.763741)">
<stop offset="0" style="stop-color:rgb(0%,0%,0%);stop-opacity:0.313725;"/>
<stop offset="0.222222" style="stop-color:rgb(0%,0%,0%);stop-opacity:0.27451;"/>
<stop offset="1" style="stop-color:rgb(0%,0%,0%);stop-opacity:0;"/>
</radialGradient>
<linearGradient id="linear0" gradientUnits="userSpaceOnUse" x1="255.32306" y1="233.5" x2="255.32304" y2="254.66666" gradientTransform="matrix(0.00668003,0,0,0.031253,6.232693,6.719392)">
<stop offset="0" style="stop-color:rgb(0%,0%,0%);stop-opacity:0.27451;"/>
<stop offset="1" style="stop-color:rgb(0%,0%,0%);stop-opacity:0;"/>
</linearGradient>
<linearGradient id="linear1" gradientUnits="userSpaceOnUse" x1="254" y1="-168.66667" x2="254" y2="233.5" >
<stop offset="0" style="stop-color:rgb(68.235294%,83.529412%,50.588235%);stop-opacity:1;"/>
<stop offset="1" style="stop-color:rgb(61.176471%,80%,39.607843%);stop-opacity:1;"/>
</linearGradient>
<linearGradient id="linear2" gradientUnits="userSpaceOnUse" x1="960" y1="1695.1182" x2="960" y2="175.11812" gradientTransform="matrix(0.00826902,0,0,0.00826902,0,0)">
<stop offset="0" style="stop-color:rgb(25.882353%,25.882353%,25.882353%);stop-opacity:1;"/>
<stop offset="1" style="stop-color:rgb(38.039216%,38.039216%,38.039216%);stop-opacity:1;"/>
</linearGradient>
</defs>
<g id="surface1">
<path style=" stroke:none;fill-rule:nonzero;fill:url(#radial0);" d="M 9.097656 14.015625 L 10.417969 14.015625 L 10.417969 13.355469 L 9.097656 13.355469 Z M 9.097656 14.015625 "/>
<path style=" stroke:none;fill-rule:nonzero;fill:url(#radial1);" d="M 6.78125 14.015625 L 5.457031 14.015625 L 5.457031 14.679688 L 6.78125 14.679688 Z M 6.78125 14.015625 "/>
<path style=" stroke:none;fill-rule:nonzero;fill:url(#radial2);" d="M 6.78125 14.015625 L 5.457031 14.015625 L 5.457031 13.355469 L 6.78125 13.355469 Z M 6.78125 14.015625 "/>
<path style=" stroke:none;fill-rule:nonzero;fill:url(#radial3);" d="M 9.097656 14.015625 L 10.417969 14.015625 L 10.417969 14.679688 L 9.097656 14.679688 Z M 9.097656 14.015625 "/>
<path style=" stroke:none;fill-rule:nonzero;fill:url(#linear0);" d="M 6.78125 13.851562 L 9.097656 13.851562 L 9.097656 14.679688 L 6.78125 14.679688 Z M 6.78125 13.851562 "/>
<path style="fill-rule:nonzero;fill:url(#linear1);stroke-width:3;stroke-linecap:round;stroke-linejoin:miter;stroke:rgb(20%,20%,20%);stroke-opacity:1;stroke-miterlimit:4;" d="M 253.975747 -168.629428 C 365.090136 -168.629428 455.081542 -78.638022 455.081542 32.476367 C 455.081542 143.465768 365.090136 233.457174 253.975747 233.457174 C 142.986345 233.457174 52.869951 143.465768 52.869951 32.476367 C 52.869951 -78.638022 142.986345 -168.629428 253.975747 -168.629428 Z M 253.975747 -168.629428 " transform="matrix(0.031253,0,0,0.031253,0,6.719392)"/>
<path style=" stroke:none;fill-rule:nonzero;fill:rgb(0%,0%,0%);fill-opacity:0.196078;" d="M 7.9375 14.015625 C 4.457031 14.015625 1.652344 11.214844 1.652344 7.734375 C 1.652344 7.710938 1.652344 7.691406 1.652344 7.671875 C 1.6875 11.125 4.476562 13.894531 7.9375 13.894531 C 11.398438 13.894531 14.191406 11.125 14.222656 7.671875 C 14.222656 7.691406 14.222656 7.710938 14.222656 7.734375 C 14.222656 11.214844 11.417969 14.015625 7.9375 14.015625 Z M 7.9375 14.015625 "/>
<path style=" stroke:none;fill-rule:nonzero;fill:rgb(100%,100%,100%);fill-opacity:0.392157;" d="M 7.9375 1.449219 C 4.457031 1.449219 1.652344 4.25 1.652344 7.734375 C 1.652344 7.753906 1.652344 7.773438 1.652344 7.792969 C 1.6875 4.339844 4.476562 1.570312 7.9375 1.570312 C 11.398438 1.570312 14.191406 4.339844 14.222656 7.792969 C 14.222656 7.773438 14.222656 7.753906 14.222656 7.734375 C 14.222656 4.25 11.417969 1.449219 7.9375 1.449219 Z M 7.9375 1.449219 "/>
<path style=" stroke:none;fill-rule:nonzero;fill:rgb(12.941176%,12.941176%,12.941176%);fill-opacity:1;" d="M 7.9375 1.402344 C 4.429688 1.402344 1.605469 4.226562 1.605469 7.734375 C 1.605469 11.238281 4.429688 14.0625 7.9375 14.0625 C 11.445312 14.0625 14.269531 11.238281 14.269531 7.734375 C 14.269531 4.226562 11.445312 1.402344 7.9375 1.402344 Z M 7.9375 1.496094 C 11.394531 1.496094 14.175781 4.277344 14.175781 7.734375 C 14.175781 11.1875 11.394531 13.96875 7.9375 13.96875 C 4.480469 13.96875 1.699219 11.1875 1.699219 7.734375 C 1.699219 4.277344 4.480469 1.496094 7.9375 1.496094 Z M 7.9375 1.496094 "/>
<path style=" stroke:none;fill-rule:nonzero;fill:url(#linear2);" d="M 8.097656 2.441406 C 8.035156 2.441406 7.972656 2.460938 7.914062 2.5 L 6.261719 3.65625 C 6.074219 3.789062 6.074219 4.066406 6.261719 4.199219 L 7.914062 5.355469 C 7.96875 5.394531 8.035156 5.417969 8.101562 5.417969 C 8.285156 5.417969 8.433594 5.269531 8.433594 5.085938 L 8.433594 4.441406 C 10.109375 4.605469 11.410156 6.011719 11.410156 7.734375 C 11.410156 8.949219 10.761719 10.007812 9.789062 10.582031 L 9.992188 10.726562 C 10.21875 10.882812 10.351562 11.125 10.390625 11.378906 C 11.601562 10.617188 12.402344 9.273438 12.402344 7.734375 C 12.402344 5.460938 10.660156 3.613281 8.433594 3.445312 L 8.433594 2.769531 C 8.433594 2.578125 8.277344 2.445312 8.109375 2.441406 C 8.105469 2.441406 8.101562 2.441406 8.097656 2.441406 Z M 5.484375 4.085938 C 4.273438 4.847656 3.472656 6.191406 3.472656 7.734375 C 3.472656 10.003906 5.214844 11.851562 7.441406 12.019531 L 7.441406 12.695312 C 7.441406 12.960938 7.742188 13.117188 7.960938 12.964844 L 9.617188 11.808594 C 9.804688 11.675781 9.804688 11.398438 9.617188 11.265625 L 7.960938 10.109375 C 7.90625 10.070312 7.84375 10.046875 7.777344 10.046875 C 7.59375 10.046875 7.441406 10.195312 7.441406 10.378906 L 7.441406 11.023438 C 5.765625 10.859375 4.464844 9.453125 4.464844 7.734375 C 4.464844 6.515625 5.117188 5.457031 6.089844 4.882812 L 5.882812 4.738281 C 5.65625 4.582031 5.523438 4.339844 5.484375 4.085938 Z M 5.484375 4.085938 "/>
<path style=" stroke:none;fill-rule:nonzero;fill:rgb(100%,100%,100%);fill-opacity:0.392157;" d="M 8.097656 2.441406 C 8.035156 2.441406 7.972656 2.460938 7.914062 2.5 L 6.261719 3.65625 C 6.140625 3.742188 6.097656 3.882812 6.128906 4.011719 C 6.148438 3.9375 6.191406 3.871094 6.261719 3.824219 L 7.914062 2.664062 C 7.972656 2.625 8.035156 2.605469 8.097656 2.605469 C 8.101562 2.605469 8.105469 2.605469 8.109375 2.605469 C 8.277344 2.609375 8.433594 2.746094 8.433594 2.9375 L 8.433594 2.769531 C 8.433594 2.578125 8.277344 2.445312 8.109375 2.441406 C 8.105469 2.441406 8.101562 2.441406 8.097656 2.441406 Z M 8.433594 3.445312 L 8.433594 3.609375 C 10.632812 3.777344 12.359375 5.582031 12.402344 7.8125 C 12.402344 7.785156 12.402344 7.757812 12.402344 7.734375 C 12.402344 5.460938 10.660156 3.613281 8.433594 3.445312 Z M 5.484375 4.085938 C 4.273438 4.847656 3.472656 6.191406 3.472656 7.734375 C 3.472656 7.757812 3.472656 7.785156 3.472656 7.8125 C 3.503906 6.308594 4.296875 4.996094 5.484375 4.253906 C 5.523438 4.507812 5.65625 4.746094 5.882812 4.90625 L 5.960938 4.960938 C 6.003906 4.933594 6.046875 4.90625 6.089844 4.882812 L 5.882812 4.738281 C 5.65625 4.582031 5.523438 4.339844 5.484375 4.085938 Z M 11.410156 7.851562 C 11.367188 9.015625 10.730469 10.027344 9.789062 10.582031 L 9.914062 10.671875 C 10.785156 10.101562 11.371094 9.128906 11.410156 8.015625 C 11.410156 8.027344 11.410156 8.039062 11.410156 8.050781 C 11.410156 8.023438 11.410156 7.996094 11.410156 7.96875 C 11.410156 7.929688 11.410156 7.890625 11.410156 7.851562 Z M 4.46875 7.851562 C 4.464844 7.890625 4.464844 7.929688 4.464844 7.96875 C 4.464844 7.996094 4.464844 8.023438 4.464844 8.054688 C 4.46875 8.042969 4.46875 8.027344 4.46875 8.015625 C 4.527344 9.683594 5.804688 11.027344 7.441406 11.191406 L 7.441406 11.023438 C 5.804688 10.863281 4.527344 9.515625 4.46875 7.851562 Z M 7.777344 10.046875 C 7.59375 10.046875 7.441406 10.195312 7.441406 10.378906 L 7.441406 10.542969 C 7.441406 10.359375 7.59375 10.210938 7.777344 10.214844 C 7.84375 10.214844 7.90625 10.234375 7.960938 10.273438 L 9.617188 11.429688 C 9.683594 11.480469 9.726562 11.546875 9.746094 11.617188 C 9.78125 11.492188 9.734375 11.347656 9.617188 11.265625 L 7.960938 10.109375 C 7.90625 10.070312 7.84375 10.046875 7.777344 10.046875 Z M 7.777344 10.046875 "/>
<path style=" stroke:none;fill-rule:nonzero;fill:rgb(0%,0%,0%);fill-opacity:0.235294;" d="M 6.164062 4.078125 C 6.082031 4.21875 6.113281 4.410156 6.261719 4.515625 L 7.914062 5.671875 C 7.96875 5.710938 8.035156 5.730469 8.101562 5.730469 C 8.285156 5.734375 8.433594 5.585938 8.433594 5.402344 L 8.433594 5.070312 C 8.433594 5.253906 8.285156 5.402344 8.101562 5.402344 C 8.035156 5.398438 7.96875 5.378906 7.914062 5.339844 L 6.261719 4.183594 C 6.21875 4.15625 6.1875 4.117188 6.164062 4.078125 Z M 8.433594 4.425781 L 8.433594 4.753906 C 10.054688 4.914062 11.328125 6.238281 11.40625 7.882812 C 11.410156 7.828125 11.410156 7.773438 11.410156 7.714844 C 11.410156 5.996094 10.109375 4.589844 8.433594 4.425781 Z M 5.84375 5.023438 C 5.007812 5.625 4.464844 6.605469 4.464844 7.714844 C 4.464844 7.773438 4.46875 7.828125 4.46875 7.882812 C 4.523438 6.734375 5.160156 5.746094 6.089844 5.199219 L 5.882812 5.054688 C 5.871094 5.042969 5.855469 5.035156 5.84375 5.023438 Z M 12.402344 7.878906 C 12.347656 9.351562 11.558594 10.628906 10.390625 11.363281 C 10.355469 11.121094 10.234375 10.894531 10.03125 10.738281 C 9.953125 10.792969 9.871094 10.847656 9.789062 10.898438 L 9.992188 11.039062 C 10.21875 11.199219 10.351562 11.4375 10.390625 11.691406 C 11.601562 10.933594 12.402344 9.585938 12.402344 8.046875 C 12.402344 7.992188 12.402344 7.9375 12.402344 7.878906 Z M 3.476562 7.882812 C 3.472656 7.9375 3.472656 7.992188 3.472656 8.046875 C 3.472656 10.316406 5.214844 12.167969 7.441406 12.335938 L 7.441406 12.003906 C 5.269531 11.839844 3.558594 10.078125 3.476562 7.882812 Z M 9.714844 11.683594 C 9.691406 11.726562 9.65625 11.761719 9.617188 11.789062 L 7.960938 12.949219 C 7.742188 13.101562 7.441406 12.945312 7.441406 12.675781 L 7.441406 13.007812 C 7.441406 13.277344 7.742188 13.433594 7.960938 13.277344 L 9.617188 12.121094 C 9.761719 12.019531 9.796875 11.828125 9.714844 11.683594 Z M 9.714844 11.683594 "/>
<path style="fill:none;stroke-width:11.338583;stroke-linecap:round;stroke-linejoin:miter;stroke:rgb(12.941176%,12.941176%,12.941176%);stroke-opacity:1;stroke-miterlimit:4;" d="M 979.276575 295.2474 C 971.718241 295.2474 964.159908 297.609379 957.07397 302.333337 L 757.25053 442.162506 C 734.57553 458.223964 734.57553 491.764069 757.25053 507.825527 L 957.07397 647.654696 C 963.687512 652.378654 971.718241 655.213029 979.748971 655.213029 C 1001.951575 655.213029 1019.902617 637.261987 1019.902617 615.059383 L 1019.902617 537.114069 C 1222.560432 556.954695 1379.868247 727.017197 1379.868247 935.343762 C 1379.868247 1082.258868 1301.450537 1210.27814 1183.823973 1279.720329 L 1208.388557 1297.198975 C 1235.787516 1316.094808 1251.848974 1345.38335 1256.572932 1376.08908 C 1403.015643 1283.971891 1499.85679 1121.467722 1499.85679 935.343762 C 1499.85679 660.409383 1289.168245 436.966151 1019.902617 416.65313 L 1019.902617 334.92865 C 1019.902617 311.781254 1001.006783 295.719795 980.693762 295.2474 C 980.221367 295.2474 979.748971 295.2474 979.276575 295.2474 Z M 663.243758 494.126048 C 516.801048 586.243237 419.959901 748.747405 419.959901 935.343762 C 419.959901 1209.805744 630.648445 1433.248976 899.914074 1453.561997 L 899.914074 1535.286478 C 899.914074 1567.409395 936.288553 1586.305228 962.74272 1567.881791 L 1163.038556 1428.052622 C 1185.713557 1411.991164 1185.713557 1378.451059 1163.038556 1362.3896 L 962.74272 1222.560432 C 956.129179 1217.836474 948.570845 1215.002099 940.540116 1215.002099 C 918.337512 1215.002099 899.914074 1232.953141 899.914074 1255.155745 L 899.914074 1333.101058 C 697.256259 1313.260433 539.948444 1143.197931 539.948444 935.343762 C 539.948444 787.95626 618.838549 659.936987 736.465113 590.494799 L 711.428134 573.016153 C 684.029175 554.120319 667.967717 524.831777 663.243758 494.126048 Z M 663.243758 494.126048 " transform="matrix(0.00826902,0,0,0.00826902,0,0)"/>
</g>
</svg>
